X:533011
F:http://www.vwml.org/record/HAM/5/33/11%%VWML:HAM-5-33-11-0
T:Den of Lions, The
S:Mrs Marina Russell, Upwey coll. HED Hammond
O:England
A:Dorset
N:Transcribed from HAM-05-098.gif
F:HAM-05-33-01.abc
Z:EFDSS;PJHeadford
%%stretchlast 0
M:5/4
L:1/4
Q:1/4=140
K:F
A|Bcd2c|cAG/A/Bc|AGF2E|D/E/FCzE|
w:Oh! then up spoke a young lieu-ten-*ant, So bold as he could speak* or stand, "Ma
GG(GA)B/ B/|cFEFE|GG(GA)B/ B/|cFEF d3/4e/4|
w:dame, Ma-dame,* here's a man in pre-sence, Ma-dame, Ma-dame,* here's a man in pre-sence, Will*
fdc2B|AGF2||
w:fetch your fan, for you he'll die:
W:[Twice, above the word 'presence', Purslow's lowest notes are indeterminate -]
W:[they could be D or E. Hammond's, however are quite clearly Es]
